X:413
T:Unfinished Journey
C:Tom Anderson, Shetland
B:Gie's An A (Lerwick 1995)
Z:Nigel Gatherer
M:4/4
L:1/8
K:Bb
Bc | d2 B2 e2 c2 | B2 AG   F3  D | E2 c2 F2 d2 | edcB c2 Bc
   | d2 B2 e2 c2 | B2 AG   F2 D2 | E2 c2 A2 F2 | B4-  B2  :|
de | f2 B2 g2 c2 | f2 A2   B3  F | E2 c2 F2 d2 | edcB c2 de
   | f2 B2 g2 c2 | f3 g/a/ b3  d | e2 g2 f2 A2 | B4-  B2 de
   | f2 B2 g2 c2 | f2 A2   B3  D | E2 c2 F2 d2 | edcB AGFE 
   | D2 B2 E2 c2 | B3 A/G/ F2 ED | E2 c2 F2 A2 | [B4D4] [B4D4] |]
<end>
<start>
